X:12
T:Ar Ddiwrnod Braf o Haf - On a Fine Summers' Day
M:3/4
L:1/4
Q:80
C:John Tose
R:Walts
K:G
E/2F/2 G/2F/2 E | E/2F/2 G/2F/2 E | F G A | E2 F | G>F E | F E D | D3-
|
D3 :|| B>A G | G F E | F G A | E2 G | B>A G | G F E | D3 | D/2
E/2 F/2G
/2 A | B>A G | G F E | F G A | E2 F | G>F E | F E D | D3- | D3 ||
